X: 38990
T: Swallow's Tail, The
R: reel
M: 4/4
K: Adorian
gf|:eAcA eAcA|(3Bcd ef gedB|G2BG dGBG|(3Bcd ef g2fg|
eAcA eAcA|(3Bcd ef gefg|af (3gfe fdec|A2 AG A2 gf:|
|:eaag aged|(3Bcd ef gedB|G2 BG dGBG|(3Bcd ef g2 gf|
eaag aged|(3Bcd ef g2fg|af (3gfe fdec|A2 AG A2 gf:|

